svg/color/lcx.svg

<svg viewBox="0 0 43 43" fill="none" xmlns="http://www.w3.org/2000/svg">
<g clip-path="url(#clip0_1495_170158)">
<path d="M23.1304 21.715L31.2224 29.759L36.0284 29.73L27.8174 21.619L36.0394 13.502L31.2954 13.437L23.1304 21.715Z" fill="#070707"/>
<path d="M20.9103 19.2781L28.9543 11.1861L28.9253 6.38012L20.8143 14.5931L12.6973 6.37012L12.6343 11.1141L20.9103 19.2781Z" fill="#070707"/>
<path d="M18.4632 21.4781L10.3712 13.4341L5.56518 13.4631L13.7772 21.5781L5.55518 29.6951L10.2992 29.7601L18.4632 21.4781Z" fill="#070707"/>
<path d="M20.6832 23.9941L12.6382 32.0861L12.6682 36.8921L20.7792 28.6811L28.8962 36.9031L28.9592 32.1591L20.6832 23.9941Z" fill="#070707"/>
</g>
<defs>
<clipPath id="clip0_1495_170158">
<rect width="43" height="43" fill="white"/>
</clipPath>
</defs>
</svg>

<svg xmlns="http://www.w3.org/2000/svg" fill="none" viewBox="0 0 43 43"><g fill="#070707" clip-path="url(#lcx_svg-a)"><path d="m23.13 21.715 8.092 8.044 4.806-.029-8.21-8.111 8.221-8.117-4.744-.065zm-2.22-2.437 8.044-8.092-.029-4.806-8.11 8.213-8.118-8.223-.063 4.744zm-2.447 2.2-8.092-8.044-4.806.03 8.212 8.114-8.222 8.117 4.744.065zm2.22 2.516-8.045 8.092.03 4.806 8.111-8.21 8.117 8.221.063-4.744z"/></g><defs><clipPath id="lcx_svg-a"><path fill="#fff" d="M0 0h43v43H0z"/></clipPath></defs></svg>
